X:995
T:Reel 995
M:4/4
K:Gmaj
L:1/8
G2BG DGBG|A2eg fdeA|G2BG DGBd|cABG AGEG|G2BG dGBG|ABcd e2g2|bgaf gedB|AcBG AGE2|gfgd gfgd|eaag fddf|gfgd BGGB|cBAG FDEF|gfgd BGG2|eaag fage|dBGA BGAG|EDEF G2G2|
